app/dist/common/images/insight-enterprise.svg

<svg height="18" width="18" xmlns="http://www.w3.org/2000/svg"><path d="m0 0h18v18h-18z" fill="#d30c55"/><path d="m8.007 6h5.993v1h-6zm3.993 2v6h-1v-6zm-5-4v6h-1v-6zm3 8h-6v-1h6zm1.894-7.217a.783.783 0 1 1 -1.566 0 .783.783 0 0 1 1.566 0zm-6.328 2.107a.783.783 0 1 1 -1.566 0 .783.783 0 0 1 1.566 0zm8.434 4.216a.783.783 0 1 1 -1.567 0 .783.783 0 0 1 1.567 0zm-6.323 2.111a.783.783 0 1 1 -1.566 0 .783.783 0 0 1 1.566 0z" fill="#fff"/></svg>

<!-- by TradingView --><svg width="18" height="18" xmlns="http://www.w3.org/2000/svg"><path fill="#D30C55" d="M0 0h18v18H0z"/><path d="M8.007 6H14v1H8l.007-1zM12 8v6h-1V8h1zM7 4v6H6V4h1zM10 12H4v-1h6v1zM11.894 4.783a.783.783 0 11-1.566 0 .783.783 0 011.566 0zM5.566 6.89A.783.783 0 114 6.89a.783.783 0 011.566 0zM14 11.106a.783.783 0 11-1.567 0 .783.783 0 011.567 0zM7.677 13.217a.783.783 0 11-1.566 0 .783.783 0 011.566 0z" fill="#fff"/></svg>
